Yaru++/mimetypes/16/text-x-gettext-translation.svg

<svg id="svg41" height="16" viewBox="0 0 4.233125 4.233125" width="16" xmlns="http://www.w3.org/2000/svg">
  <path id="path33" d="m.52914062.13228519c-.219857 0-.39685546.17699746-.39685546.39685546v3.17484365c0 .2198582.17699846.3968555.39685546.3968555h3.17484368c.2198582 0 .3968555-.1769973.3968555-.3968555v-3.17484365c0-.219858-.1769973-.39685546-.3968555-.39685546zm1.44273488.61491927h.2888571v.43354384h1.1559449v.2888571h-.4779835c-.171942.443842-.3831757.8203442-.6319717 1.1275242.289464.299812.6243359.5012828 1.0055739.6118189l-.0806113.2774887c-.423657-.1228339-.7958345-.3493009-1.1151225-.6753777-.3192869.3260768-.6919823.5525438-1.1156392.6753777l-.08061125-.2774887c.38123795-.1105361.71610985-.3120069 1.00557385-.6118189-.248796-.30718-.4595109-.6836822-.6314549-1.1275242h-.4785002v-.2888571h1.1559448zm-.3668846.72240094c.146677.357106.3174056.6586312.5115715.9079102.194166-.249279.3643778-.5508042.5110548-.9079102z" fill="#808080" stroke-width=".198428"/>
</svg>

<?xml version="1.0" encoding="UTF-8" standalone="no"?>
<svg
   xmlns:dc="http://purl.org/dc/elements/1.1/"
   xmlns:cc="http://creativecommons.org/ns#"
   xmlns:rdf="http://www.w3.org/1999/02/22-rdf-syntax-ns#"
   xmlns:svg="http://www.w3.org/2000/svg"
   xmlns="http://www.w3.org/2000/svg"
   xmlns:sodipodi="http://sodipodi.sourceforge.net/DTD/sodipodi-0.dtd"
   xmlns:inkscape="http://www.inkscape.org/namespaces/inkscape"
   width="16"
   height="16"
   version="1.1"
   viewBox="0 0 4.233125 4.233125"
   id="svg41"
   sodipodi:docname="text-x-gettext-translation.svg"
   inkscape:version="0.92.4 (5da689c313, 2019-01-14)">
  <metadata
     id="metadata45">
    <rdf:RDF>
      <cc:Work
         rdf:about="">
        <dc:format>image/svg+xml</dc:format>
        <dc:type
           rdf:resource="http://purl.org/dc/dcmitype/StillImage" />
        <dc:title></dc:title>
      </cc:Work>
    </rdf:RDF>
  </metadata>
  <sodipodi:namedview
     pagecolor="#ffffff"
     bordercolor="#666666"
     borderopacity="1"
     objecttolerance="10"
     gridtolerance="10"
     guidetolerance="10"
     inkscape:pageopacity="0"
     inkscape:pageshadow="2"
     inkscape:window-width="1920"
     inkscape:window-height="1016"
     id="namedview43"
     showgrid="false"
     inkscape:zoom="52.4375"
     inkscape:cx="8"
     inkscape:cy="8"
     inkscape:window-x="0"
     inkscape:window-y="27"
     inkscape:window-maximized="1"
     inkscape:current-layer="svg41" />
  <defs
     id="defs17">
    <linearGradient
       id="linearGradient4226"
       x1="529.65503"
       x2="-35.310001"
       y1="401.58401"
       y2="119.093"
       gradientTransform="matrix(0,-0.11988932,-0.11988589,0,67.016455,292.81288)"
       gradientUnits="userSpaceOnUse">
      <stop
         style="stop-color:#d24625"
         offset="0"
         id="stop2" />
      <stop
         style="stop-color:#ec532f"
         offset="1"
         id="stop4" />
    </linearGradient>
    <linearGradient
       id="linearGradient4358"
       x1="88"
       x2="488"
       y1="88"
       y2="488"
       gradientUnits="userSpaceOnUse">
      <stop
         style="stop-color:#000000;stop-opacity:.58823532"
         offset="0"
         id="stop7" />
      <stop
         style="stop-color:#000000;stop-opacity:0"
         offset=".88"
         id="stop9" />
      <stop
         style="stop-color:#000000"
         offset="1"
         id="stop11" />
    </linearGradient>
    <filter
       id="filter4346"
       width="1.026"
       height="1.022"
       x="-0.0099999998"
       y="-0.0099999998"
       style="color-interpolation-filters:sRGB">
      <feGaussianBlur
         stdDeviation="2.12"
         id="feGaussianBlur14" />
    </filter>
    <filter
       style="color-interpolation-filters:sRGB"
       id="b"
       x="-0.059999999"
       y="-0.059999999"
       width="1.12"
       height="1.12">
      <feGaussianBlur
         stdDeviation="0.5"
         id="feGaussianBlur8" />
    </filter>
    <filter
       style="color-interpolation-filters:sRGB"
       id="c"
       x="-0.035999998"
       y="-0.035999998"
       width="1.072"
       height="1.072">
      <feGaussianBlur
         stdDeviation="0.3"
         id="feGaussianBlur5" />
    </filter>
  </defs>
  <path
     style="color:#000000;display:inline;fill:#808080;fill-opacity:1;stroke-width:0.19842775;enable-background:new"
     d="m 0.52914062,0.13228519 c -0.219857,0 -0.39685546,0.17699746 -0.39685546,0.39685546 V 3.7039843 c 0,0.2198582 0.17699846,0.3968555 0.39685546,0.3968555 H 3.7039843 c 0.2198582,0 0.3968555,-0.1769973 0.3968555,-0.3968555 V 0.52914065 c 0,-0.219858 -0.1769973,-0.39685546 -0.3968555,-0.39685546 z M 1.9718755,0.74720446 H 2.2607326 V 1.1807483 H 3.4166775 V 1.4696054 H 2.938694 C 2.766752,1.9134474 2.5555183,2.2899496 2.3067223,2.5971296 2.5961863,2.8969416 2.9310582,3.0984124 3.3122962,3.2089485 L 3.2316849,3.4864372 C 2.8080279,3.3636033 2.4358504,3.1371363 2.1165624,2.8110595 1.7972755,3.1371363 1.4245801,3.3636033 1.0009232,3.4864372 L 0.92031195,3.2089485 C 1.3015499,3.0984124 1.6364218,2.8969416 1.9258858,2.5971296 1.6770898,2.2899496 1.4663749,1.9134474 1.2944309,1.4696054 H 0.8159307 V 1.1807483 H 1.9718755 Z M 1.6049909,1.4696054 c 0.146677,0.357106 0.3174056,0.6586312 0.5115715,0.9079102 0.194166,-0.249279 0.3643778,-0.5508042 0.5110548,-0.9079102 z"
     id="path33"
     inkscape:connector-curvature="0" />
</svg>
